wp-content/uploads/2021/08/m2-s1-5.svg

<svg xmlns="http://www.w3.org/2000/svg" width="70.488" height="51.14" viewBox="0 0 70.488 51.14"><g fill="none" stroke="currentColor" stroke-miterlimit="10" stroke-width="2"><path d="M0 4.999h9.997M4.999 0v9.998m14.975-4.999h9.997M24.973 0v9.998M0 25.57h9.997m-4.998-4.999v9.998m14.975-4.999h9.997m-4.998-4.999v9.998M40.516 25.57h9.997m-4.998-4.999v9.998M60.49 25.57h9.998m-4.999-4.999v9.998M40.516 46.141h9.997m-4.998-4.999v9.998M60.49 46.141h9.998m-4.999-4.999v9.998"/></g></svg>

<svg xmlns="http://www.w3.org/2000/svg" width="70.488" height="51.14" viewBox="0 0 70.488 51.14"><g fill="none" stroke="currentColor" stroke-miterlimit="10" stroke-width="2"><path d="M0 4.999h9.997M4.999 0v9.998M19.974 4.999h9.997M24.973 0v9.998M0 25.57h9.997M4.999 20.571v9.998M19.974 25.57h9.997M24.973 20.571v9.998"></path><g><path d="M40.516 25.57h9.997M45.515 20.571v9.998"></path></g><g><path d="M60.49 25.57h9.998M65.489 20.571v9.998"></path></g><g><path d="M40.516 46.141h9.997M45.515 41.142v9.998"></path></g><g><path d="M60.49 46.141h9.998M65.489 41.142v9.998"></path></g></g></svg>
